X:1
T:Title
%%score 1 2 3 4
L:1/8
Q:1/4=105
M:3/4
K:Ab
V:1 treble nm="Church Organ, Church Organ"
V:2 treble nm="French Horn, French Horn"
V:3 bass nm="Trombone, Trombone"
V:4 bass nm="Tuba, Tuba"
V:1
 E2 E3 A | AG GF F2- | FF F3 E | FE E4 | E2 E3 c | cB BA A2 | GF EA B2- | BE A4- | A2 A2 AA | %9
w: By~William~G.~Fischer * *|||||||||
 GF FE c2- | c2 d2 dd | cB A4 |] %12
w: |||
V:2
 C2 C3 C | DE ED D2- | DD D3 D | DD C4 | C2 C3 E | =EE FF F2 | ED CE D2- | DD C4- | C2 F2 FF | %9
w: A~ Glo ry~|lit~ the~ win try~ sky~|* Be fore~ the~|break~ of~ day,~|And~ in~ a~|lit tle~ house~ near~ by~|* The~ Lord~ of~ Glo|* ry~ lay:~|* An gels~ of~|
 ED DC E2- | E2 G2 GG | GG E4 |] %12
w: peace~ the~ ti dings~ bring,~|* An gels~ of~|Je sus~ sing.~|
V:3
 A,2 A,3 A, | A,A, A,A, A,2- | A,A, G,3 G, | G,G, A,4 | A,2 A,3 A, | B,[K:treble]C CC D2 | %6
 A,[K:bass]A, A,C F,2 | G,G, A,4- | A,2 A,2 DD | A,A, A,A, A,2- | A,2 B,2[K:treble] B,B, | DE C4 |] %12
V:4
 A,,2 A,,3 A,, | B,,C, D,D, D,2- | D,D, E,3 E, | E,E, A,,4 | A,,2 A,3 A, | G,G, F,F, D,2- | %6
 D,D, E,E, E,2- | E,E, A,,4- | A,,2 D,2 D,D, | D,D, A,A, A,2- | A,2 E,2 E,E, | E,E, A,4 |] %12

